images/trainings-block-home.svg

<svg fill="none" height="14" viewBox="0 0 14 14" width="14" xmlns="http://www.w3.org/2000/svg"><path d="m1.19568 6.26677c-.69965.69965-.204124 1.89595.78534 1.89595h.81564v3.78528c0 .6133.49725 1.1106 1.11063 1.1106h2.03671v-2.7976h2.09821v2.7976h2.03669c.6134 0 1.1106-.4973 1.1106-1.1106v-3.78528h.8158c.9895 0 1.485-1.1963.7853-1.89595l-5.0121-5.01215c-.43373-.43373-1.13694-.433731-1.57066 0z" fill="#08274d" fill-opacity=".3"/></svg>

<svg width="14" height="14" viewBox="0 0 14 14" fill="none" xmlns="http://www.w3.org/2000/svg">
<g id="home">
<path id="Home" d="M1.19568 6.26677C0.49603 6.96642 0.991556 8.16272 1.98102 8.16272H2.79666V11.948C2.79666 12.5613 3.29391 13.0586 3.90729 13.0586H5.944V10.261H8.04221V13.0586H10.0789C10.6923 13.0586 11.1895 12.5613 11.1895 11.948V8.16272H12.0053C12.9948 8.16272 13.4903 6.96642 12.7906 6.26677L7.7785 1.25462C7.34477 0.82089 6.64156 0.820889 6.20784 1.25462L1.19568 6.26677Z" fill="#08274D" fill-opacity="0.3"/>
</g>
</svg>
